X:1
T:Title
%%score { ( 1 4 ) | ( 2 3 ) }
L:1/8
M:6/8
K:Ab
V:1 treble nm="Grand Piano"
V:4 treble 
V:2 bass 
V:3 bass 
V:1
 z3 z2[Q:1/4=75] E | [CE][CA]B c2 [=EB] | [FA]GF E2 [CE]/[CE]/ | EAB c2 [AB] | %4
[M:5/8] [GB]-[GB]- [GB]3 |[M:1/8] E |[M:3/4] [CE][CA] B c2 [EB] | [FA]G F E2 [C=E] | %8
[M:7/8] [DF][Fd]3/2[DF][CE][Ec]3/2[CE] |[M:11/16] z/ z/ z/ z/ z B/-B-<B |[M:1/8] G/A/ | %11
[M:3/4] B2 B[Fd] [Ec][DB] | [CA][Ec]- [Ec]3 c | ed ce dc |[M:5/8] B-B- B3 |[M:1/8] [F_c] | %16
[M:3/4] z2 z c z2 | %17
 z2 z d z2[Q:1/4=73][Q:1/4=70][Q:1/4=68][Q:1/4=66][Q:1/4=63][Q:1/4=61][Q:1/4=59] | %18
[M:7/8] A E3 [Fd] [Ec][DB] |[M:5/8] [CA]-[CA]- [CA]3 |] %20
V:2
 z3 z2 E, | [A,,A,][A,,A,][E,G,D] [A,E]2 [C,A,] | A,-[E,A,E][F,A,D] [A,C]2 [A,,A,]/[A,,A,]/ | %3
 [A,C][F,A,C][E,G,E] [A,E]2 [F,=D] |[M:5/8] E z z z2 |[M:1/8] [E,G,D] | %6
[M:3/4] [A,,A,][A,,A,] [E,G,D] [A,E]2 [C,A,] | A,-[E,A,E] [F,A,D] [A,C]2 [A,,A,] | %8
[M:7/8] [D,A,]2- [D,A,]/[D,A,][A,,A,]/- [A,,A,]2 [A,,A,] | %9
[M:11/16] [B,,F,]-<[B,,F,].[B,,B,]>A,G,3/2 |[M:1/8] [E,B,D]/[E,A,C]/ | %11
[M:3/4] [E,G,D]2 [E,G,D] [E,G,]2 [E,G,] | [A,,E,][A,,A,]- [A,,A,]3[K:treble] [A,CA] | %13
 [CEc][B,DB] [A,CA][CEc] [B,DB][A,CA] |[M:5/8] [G,B,G]-[G,B,G]- [G,B,G]3 |[M:1/8][K:bass] [D,G,] | %16
[M:3/4] [C,G,]2 [C,G,]G, CC, | z A, [F,B,F][B,,B,] [C,=A,][D,B,] | %18
[M:7/8] [E,CE] [E,C]3 [E,G,]2 [E,G,] |[M:5/8] [A,,E,]-[A,,E,]- [A,,E,]3 |] %20
V:3
 x6 | x6 | .D,3 z3 | x6 |[M:5/8] E,-E,- E,3 |[M:1/8] x |[M:3/4] x6 | .D,2 z2 z2 |[M:7/8] x7 | %9
[M:11/16] z/ z/ z/ z/ z E,/-E,-<E, |[M:1/8] x |[M:3/4] x6 | x5[K:treble] x | x6 |[M:5/8] x5 | %15
[M:1/8][K:bass] x |[M:3/4] z2 z .C,3 | F,2 z2 z2 |[M:7/8] x7 |[M:5/8] x5 |] %20
V:4
 x6 | x6 | x6 | x6 |[M:5/8] z =D_D CB, |[M:1/8] x |[M:3/4] x6 | x6 |[M:7/8] x7 | %9
[M:11/16] [B,=D][DB][Ac][B,G]/F<E |[M:1/8] x |[M:3/4] x6 | x6 | x6 |[M:5/8] x5 |[M:1/8] x | %16
[M:3/4] [=Ec]2 [Ec]E- [EB][CEG] | [CFA]F BF- [Fc][FB] |[M:7/8] x7 |[M:5/8] x5 |] %20

